svgs/duotone/audio-description.svg

<svg xmlns="http://www.w3.org/2000/svg" viewBox="0 0 576 512"><!-- Font Awesome Pro 6.0.0-alpha2 by @fontawesome - https://fontawesome.com License - https://fontawesome.com/license (Commercial License) --><defs><style>.fa-secondary{opacity:.4}</style></defs><path d="M170.836 280H213.164L192 237.672L170.836 280ZM384 208H352V304H384C410.469 304 432 282.469 432 256S410.469 208 384 208ZM512 32H64C28.654 32 0 60.652 0 96V416C0 451.346 28.654 480 64 480H512C547.346 480 576 451.346 576 416V96C576 60.652 547.346 32 512 32ZM274.719 349.469C271.281 351.188 267.625 352 264.031 352C255.219 352 246.75 347.141 242.531 338.734L233.164 320H150.836L141.469 338.734C135.562 350.594 121.156 355.438 109.281 349.469C97.406 343.531 92.594 329.125 98.531 317.266L170.531 173.266C178.656 157.016 205.344 157.016 213.469 173.266L285.469 317.266C291.406 329.125 286.594 343.531 274.719 349.469ZM384 352H328C314.75 352 304 341.25 304 328V184C304 170.75 314.75 160 328 160H384C436.938 160 480 203.062 480 256S436.938 352 384 352Z" class="fa-secondary"/><path d="M213.481 173.266C205.356 157.016 178.668 157.016 170.543 173.266L98.543 317.266C92.606 329.125 97.418 343.531 109.293 349.469C121.168 355.438 135.575 350.594 141.481 338.734L150.848 320H233.176L242.543 338.734C246.762 347.141 255.231 352 264.043 352C267.637 352 271.293 351.188 274.731 349.469C286.606 343.531 291.418 329.125 285.481 317.266L213.481 173.266ZM170.848 280L192.012 237.672L213.176 280H170.848ZM384.012 160H328.012C314.762 160 304.012 170.75 304.012 184V328C304.012 341.25 314.762 352 328.012 352H384.012C436.95 352 480.012 308.938 480.012 256S436.95 160 384.012 160ZM384.012 304H352.012V208H384.012C410.481 208 432.012 229.531 432.012 256S410.481 304 384.012 304Z" class="fa-primary"/></svg>

<svg xmlns="http://www.w3.org/2000/svg" viewBox="0 0 576 512"><!--! Font Awesome Pro 6.4.0 by @fontawesome - https://fontawesome.com License - https://fontawesome.com/license (Commercial License) Copyright 2023 Fonticons, Inc. --><defs><style>.fa-secondary{opacity:.4}</style></defs><path class="fa-primary" d="M192 160c9.1 0 17.4 5.1 21.5 13.3l72 144c5.9 11.9 1.1 26.3-10.7 32.2s-26.3 1.1-32.2-10.7l-9.4-18.9H150.9l-9.4 18.9c-5.9 11.9-20.3 16.7-32.2 10.7s-16.7-20.3-10.7-32.2l72-144c4.1-8.1 12.4-13.3 21.5-13.3zM170.9 279.8h42.2L192 237.7l-21.1 42.2zM304 184c0-13.3 10.7-24 24-24h56c53 0 96 43 96 96s-43 96-96 96H328c-13.3 0-24-10.7-24-24V184zm48 24v96h32c26.5 0 48-21.5 48-48s-21.5-48-48-48H352z"/><path class="fa-secondary" d="M64 32C28.7 32 0 60.7 0 96V416c0 35.3 28.7 64 64 64H512c35.3 0 64-28.7 64-64V96c0-35.3-28.7-64-64-64H64zM213.5 173.3l72 144c5.9 11.9 1.1 26.3-10.7 32.2s-26.3 1.1-32.2-10.7l-9.4-18.9H150.9l-9.4 18.9c-5.9 11.9-20.3 16.7-32.2 10.7s-16.7-20.3-10.7-32.2l72-144c4.1-8.1 12.4-13.3 21.5-13.3s17.4 5.1 21.5 13.3zM192 237.7l-21.1 42.2h42.2L192 237.7zM328 160h56c53 0 96 43 96 96s-43 96-96 96H328c-13.3 0-24-10.7-24-24V184c0-13.3 10.7-24 24-24zm24 144h32c26.5 0 48-21.5 48-48s-21.5-48-48-48H352v96z"/></svg>
